exported-svg/thermometer.svg

<svg height="24" viewBox="0 0 24 24" width="24" xmlns="http://www.w3.org/2000/svg"><path d="m15.0003877 4c0-1.65685425-1.3431458-3-3-3-1.6568543 0-3.00000002 1.34314575-3.00000002 3v11.0015874c-1.67401648 1.2545539-2.39754288 3.4311625-1.78471449 5.4514511.63930016 2.1075572 2.58232899 3.5486189 4.78471451 3.5486189 2.2023855 0 4.1454143-1.4410617 4.7847145-3.5486189.6128284-2.0202886-.110698-4.1968972-1.7847145-5.4514511zm-1 11.26c0 .1669944.0833698.322965.2222222.4157397 1.4649906.978838 2.1169895 2.8009769 1.6055494 4.4870226-.5114402 1.6860457-2.0658632 2.8388951-3.8277716 2.8388951s-3.31633148-1.1528494-3.82777161-2.8388951.14055879-3.5081846 1.60554937-4.4870226c.13885243-.0927747.22222224-.2487453.22222224-.4157397v-11.26c0-1.1045695.8954305-2 2-2s2 .8954305 2 2z"/></svg>

<?xml version="1.0" encoding="UTF-8"?>
<svg width="24px" height="24px" viewBox="0 0 24 24" version="1.1" xmlns="http://www.w3.org/2000/svg" xmlns:xlink="http://www.w3.org/1999/xlink">
    <!-- Generator: Sketch 55.2 (78181) - https://sketchapp.com -->
    <title>thermometer</title>
    <desc>Created with Sketch.</desc>
    <g id="thermometer" stroke="none" stroke-width="1" fill="none" fill-rule="evenodd">
        <path d="M15.0003877,4 C15.0003877,2.34314575 13.6572419,1 12.0003877,1 C10.3435334,1 9.00038768,2.34314575 9.00038768,4 L9.00038768,15.0015874 C7.3263712,16.2561413 6.6028448,18.4327499 7.21567319,20.4530385 C7.85497335,22.5605957 9.79800218,24.0016574 12.0003877,24.0016574 C14.2027732,24.0016574 16.145802,22.5605957 16.7851022,20.4530385 C17.3979306,18.4327499 16.6744042,16.2561413 15.0003877,15.0015874 L15.0003877,4 Z M14.0003877,15.26 C14.0003877,15.4269944 14.0837575,15.582965 14.2226099,15.6757397 C15.6876005,16.6545777 16.3395994,18.4767166 15.8281593,20.1627623 C15.3167191,21.848808 13.7622961,23.0016574 12.0003877,23.0016574 C10.2384793,23.0016574 8.68405622,21.848808 8.17261609,20.1627623 C7.66117596,18.4767166 8.31317488,16.6545777 9.77816546,15.6757397 C9.91701789,15.582965 10.0003877,15.4269944 10.0003877,15.26 L10.0003877,4 C10.0003877,2.8954305 10.8958182,2 12.0003877,2 C13.1049572,2 14.0003877,2.8954305 14.0003877,4 L14.0003877,15.26 Z" id="Shape" fill="#000000" fill-rule="nonzero"></path>
    </g>
</svg>
